img/leaders.svg

<svg width="48" height="48" viewBox="0 0 48 48" fill="none" xmlns="http://www.w3.org/2000/svg">
<g clip-path="url(#clip0)">
<path d="M33.295 48C44.314 48 50.602 35.375 46.967 22.253C43.333 9.13096 33.966 17.326 26.667 5.22596C18.654 -8.06404 1.387 6.33896 0 22.253C0.53 30.835 7.93 48 33.295 48Z" fill="#E8F3FE"/>
<path d="M20.374 12.9005L19.496 14.0305L19.494 14.0335C19.3864 14.1718 19.2413 14.2763 19.076 14.3345L17.74 14.8125L20.374 12.9005ZM20.374 12.9005C20.714 12.4605 21.246 12.2045 21.802 12.1955C21.9902 12.193 22.1776 12.219 22.358 12.2725H22.36L23.716 12.6625C23.886 12.7175 24.079 12.7175 24.248 12.6625L25.605 12.2725H25.606C26.342 12.0555 27.136 12.3125 27.59 12.8995L28.468 14.0305L28.471 14.0335C28.575 14.1635 28.714 14.2765 28.888 14.3345L30.224 14.8125C30.5728 14.9356 30.8767 15.1606 31.0961 15.4583C31.3156 15.7561 31.4406 16.1128 31.455 16.4825L31.499 17.8925C31.499 18.0815 31.555 18.2525 31.669 18.3975L32.477 19.5665L32.479 19.5685C32.913 20.1745 32.913 21.0185 32.479 21.6235L32.477 21.6265L31.665 22.8005L31.664 22.8025C31.5604 22.9482 31.5029 23.1217 31.499 23.3005L31.455 24.7105C31.4407 25.08 31.3158 25.4367 31.0965 25.7344C30.8773 26.0322 30.5736 26.2572 30.225 26.3805L20.374 12.9005ZM20.374 12.9005L30.225 26.3805L20.374 12.9005ZM16.51 16.4805V16.4815L16.466 17.8915C16.4621 18.0702 16.4046 18.2437 16.301 18.3895L16.3 18.3915L15.49 19.5615C15.2943 19.8754 15.1923 20.2386 15.196 20.6085C15.1997 20.9784 15.309 21.3396 15.511 21.6495L16.318 22.8155C16.4307 22.9594 16.4907 23.1377 16.488 23.3205L16.532 24.7305V24.7315C16.552 25.4745 17.046 26.1445 17.762 26.4015L18.462 26.6395L18.652 26.7035L18.582 26.8915L16.059 33.7185C16.0292 33.8018 16.0249 33.8922 16.0466 33.978C16.0683 34.0639 16.1151 34.1413 16.181 34.2005C16.321 34.3235 16.523 34.3545 16.695 34.2775C17.3285 33.983 18.0528 33.9513 18.7096 34.1892C19.3663 34.4272 19.9022 34.9155 20.2 35.5475C20.275 35.7095 20.44 35.8045 20.615 35.8045H20.628C20.827 35.7845 20.988 35.6725 21.045 35.5025L21.046 35.4975L23.57 28.6275L23.596 28.5535L23.666 28.5185L23.71 28.4975L23.722 28.4915L23.735 28.4865C23.9093 28.4307 24.0967 28.4307 24.271 28.4865L25.628 28.8765C26.365 29.0935 27.158 28.8365 27.613 28.2485L28.403 27.2265L28.62 26.9465L28.741 27.2785L30.76 32.7795L30.863 33.0595L30.565 33.0415C30.0631 33.0072 29.5595 33.0775 29.0861 33.2479C28.6128 33.4183 28.1799 33.6851 27.815 34.0315L27.601 34.2375L27.497 33.9585L26.357 30.8935C26.26 30.6395 25.997 30.5275 25.777 30.6145C25.53 30.7135 25.408 30.9795 25.492 31.1865L25.494 31.1925L27.052 35.4535C27.11 35.6135 27.279 35.7415 27.47 35.7605H27.483C27.5698 35.7603 27.6549 35.7358 27.7286 35.6899C27.8022 35.644 27.8616 35.5784 27.9 35.5005C28.1985 34.8695 28.7345 34.3823 29.391 34.1451C30.0475 33.9079 30.7711 33.94 31.404 34.2345L16.51 16.4805ZM16.509 16.4805L31.403 34.2345L16.509 16.4805ZM16.509 16.4805C16.5233 16.111 16.6482 15.7543 16.8675 15.4565C17.0868 15.1588 17.3904 14.9337 17.739 14.8105L16.509 16.4805ZM31.403 34.2345C31.487 34.2718 31.58 34.2842 31.6709 34.2704C31.7618 34.2566 31.8468 34.217 31.916 34.1565C31.9817 34.0974 32.0284 34.0201 32.0501 33.9345C32.0718 33.8489 32.0676 33.7587 32.038 33.6755L29.536 26.8255L29.468 26.6395L29.656 26.5745L30.226 26.3795L31.403 34.2345ZM31.403 34.2345L30.225 26.3795L31.403 34.2345ZM19.692 27.3775L19.477 27.1035L19.356 27.4305L17.338 32.8655L17.24 33.1285H17.784C18.203 33.1285 18.618 33.1915 19.01 33.3335C19.497 33.5235 19.931 33.7715 20.28 34.1165L20.495 34.3295L20.6 34.0445L22.377 29.2185L22.474 28.9555H22.194C22.13 28.9555 22.067 28.9615 22.014 28.9665H22.01C21.9619 28.9724 21.9135 28.9757 21.865 28.9765C21.5827 28.9757 21.3041 28.9117 21.0497 28.7892C20.7953 28.6667 20.5716 28.4887 20.395 28.2685L19.692 27.3775ZM28.138 20.6065C28.138 18.3445 26.272 16.4975 23.993 16.4975C21.715 16.4975 19.849 18.3445 19.849 20.6065C19.849 22.8685 21.715 24.7155 23.993 24.7155C26.272 24.7155 28.138 22.8685 28.138 20.6055V20.6065ZM23.53 19.5205C23.53 19.2605 23.726 19.0635 23.993 19.0635C24.26 19.0635 24.456 19.2605 24.456 19.5205V21.6945C24.456 21.9545 24.26 22.1515 23.993 22.1515C23.9322 22.1535 23.8715 22.1432 23.8148 22.121C23.7581 22.0988 23.7065 22.0653 23.6632 22.0226C23.6199 21.9798 23.5857 21.9286 23.5628 21.8722C23.5399 21.8158 23.5287 21.7553 23.53 21.6945V19.5205Z" fill="#2C70C1" stroke="#2C70C1" stroke-width="0.391"/>
</g>
<defs>
<clipPath id="clip0">
<rect width="48" height="48" fill="white"/>
</clipPath>
</defs>
</svg>

<svg width="48" height="48" fill="none" xmlns="http://www.w3.org/2000/svg"><g clip-path="url(#clip0)"><path d="M33.295 48c11.019 0 17.307-12.625 13.672-25.747-3.634-13.122-13.001-4.927-20.3-17.027C18.654-8.064 1.387 6.339 0 22.253.53 30.835 7.93 48 33.295 48z" fill="#E8F3FE"/><path d="M20.374 12.9l-.878 1.13-.002.004a.914.914 0 01-.418.3l-1.336.479 2.634-1.913zm0 0a1.844 1.844 0 011.984-.627h.002l1.356.39c.17.054.363.054.532 0l1.357-.39h.001c.736-.217 1.53.04 1.984.627l.878 1.13.003.004c.104.13.243.242.417.3l1.336.479a1.847 1.847 0 011.231 1.67l.044 1.41c0 .188.056.36.17.505l.808 1.169.002.002c.434.605.434 1.45 0 2.055l-.002.003-.812 1.174-.001.002a.893.893 0 00-.165.497l-.044 1.41a1.847 1.847 0 01-1.23 1.67L20.374 12.9zm0 0l9.851 13.48-9.851-13.48zm-3.864 3.58v.002l-.044 1.41a.894.894 0 01-.165.498l-.001.002-.81 1.17a1.942 1.942 0 00.021 2.087l.807 1.166a.8.8 0 01.17.505l.044 1.41v.002c.02.742.514 1.413 1.23 1.67l.7.238.19.063-.07.189-2.523 6.826a.446.446 0 00.122.482c.14.123.342.154.514.078a2.643 2.643 0 013.505 1.27c.075.161.24.256.415.256h.013c.199-.02.36-.132.417-.302l.001-.005 2.524-6.87.026-.073.07-.035.044-.021.012-.007.013-.005a.879.879 0 01.536 0l1.357.39c.737.217 1.53-.04 1.985-.628l.79-1.021.217-.28.121.332 2.019 5.5.103.28-.298-.017a3.635 3.635 0 00-2.75.99l-.214.206-.104-.28-1.14-3.064c-.097-.254-.36-.366-.58-.28-.247.1-.369.366-.285.572l.002.006 1.558 4.261c.058.16.227.288.418.307h.013a.467.467 0 00.417-.26 2.643 2.643 0 013.504-1.266L16.51 16.48zm-.001 0l14.894 17.754L16.509 16.48zm0 0a1.847 1.847 0 011.23-1.67l-1.23 1.67zm14.894 17.754a.482.482 0 00.513-.078.446.446 0 00.122-.48l-2.502-6.85-.068-.186.188-.066.57-.195 1.177 7.855zm0 0l-1.178-7.855 1.178 7.855zm-11.711-6.857l-.215-.273-.121.326-2.018 5.435-.098.264h.544c.419 0 .834.063 1.226.205.487.19.921.438 1.27.782l.215.214.105-.285 1.777-4.827.097-.262h-.28c-.064 0-.127.006-.18.01h-.004c-.048.006-.097.01-.145.01a1.892 1.892 0 01-1.47-.707l-.703-.891zm8.446-6.77c0-2.262-1.866-4.11-4.145-4.11-2.278 0-4.144 1.848-4.144 4.11 0 2.262 1.866 4.108 4.144 4.108 2.279 0 4.145-1.846 4.145-4.11v.002zM23.53 19.52c0-.26.196-.456.463-.456s.463.197.463.456v2.175c0 .26-.196.456-.463.456a.448.448 0 01-.463-.456V19.52z" fill="#2C70C1" stroke="#2C70C1" stroke-width=".391"/></g><defs><clipPath id="clip0"><path fill="#fff" d="M0 0h48v48H0z"/></clipPath></defs></svg>
